packages/components/src/components/icon/common/withdrawal.svg

<svg width="48" height="48" viewBox="0 0 48 48" fill="none" xmlns="http://www.w3.org/2000/svg">
<rect width="48" height="48" rx="24" fill="#F2F3F4"/>
<path d="M27 30V24.75C27 23.5125 28.0125 22.5 29.25 22.5H34.5V21.0375C34.5 19.77 33.4725 18.75 32.2125 18.75H14.2875C13.02 18.75 12 19.7775 12 21.0375V33.7125C12 34.98 13.0275 36 14.2875 36H32.2125C33.48 36 34.5 34.9725 34.5 33.7125V32.25H29.25C28.0125 32.25 27 31.2375 27 30Z" fill="#85ACB0"/>
<path d="M34.5 23.25H29.25C28.4216 23.25 27.75 23.9216 27.75 24.75V30C27.75 30.8284 28.4216 31.5 29.25 31.5H34.5C35.3284 31.5 36 30.8284 36 30V24.75C36 23.9216 35.3284 23.25 34.5 23.25Z" fill="#85ACB0"/>
<path d="M30.375 28.5C30.9963 28.5 31.5 27.9963 31.5 27.375C31.5 26.7537 30.9963 26.25 30.375 26.25C29.7537 26.25 29.25 26.7537 29.25 27.375C29.25 27.9963 29.7537 28.5 30.375 28.5Z" fill="white"/>
<g style="mix-blend-mode:multiply">
<path d="M18 24C21.3137 24 24 21.3137 24 18C24 14.6863 21.3137 12 18 12C14.6863 12 12 14.6863 12 18C12 21.3137 14.6863 24 18 24Z" fill="#FF444F"/>
</g>
<path d="M21 17.25H15C14.5858 17.25 14.25 17.5858 14.25 18C14.25 18.4142 14.5858 18.75 15 18.75H21C21.4142 18.75 21.75 18.4142 21.75 18C21.75 17.5858 21.4142 17.25 21 17.25Z" fill="white"/>
</svg>

<svg width="48" height="48" fill="none" xmlns="http://www.w3.org/2000/svg"><rect width="48" height="48" rx="24" fill="#F2F3F4"/><path d="M27 30v-5.25a2.257 2.257 0 0 1 2.25-2.25h5.25v-1.462a2.287 2.287 0 0 0-2.288-2.288H14.287A2.287 2.287 0 0 0 12 21.038v12.674A2.287 2.287 0 0 0 14.287 36h17.925a2.287 2.287 0 0 0 2.288-2.288V32.25h-5.25A2.257 2.257 0 0 1 27 30Z" fill="#85ACB0"/><path d="M34.5 23.25h-5.25a1.5 1.5 0 0 0-1.5 1.5V30a1.5 1.5 0 0 0 1.5 1.5h5.25A1.5 1.5 0 0 0 36 30v-5.25a1.5 1.5 0 0 0-1.5-1.5Z" fill="#85ACB0"/><path d="M30.375 28.5a1.125 1.125 0 1 0 0-2.25 1.125 1.125 0 0 0 0 2.25Z" fill="#fff"/><path d="M18 24a6 6 0 1 0 0-12 6 6 0 0 0 0 12Z" fill="#FF444F" style="mix-blend-mode:multiply"/><path d="M21 17.25h-6a.75.75 0 0 0 0 1.5h6a.75.75 0 0 0 0-1.5Z" fill="#fff"/></svg>
